X: 1
T: The Curlew
R: reel
M: 4/4
L: 1/8
K: Bmin
fB~B2 Bcde|fece ~a3e|(3fga ed cA~A2|^GAce a^gba|
fB~B2 Bcde|fece ~a3f|~=g3e ~f3e|dBBA FB~B2:|
|:(3Bcd cd BF~F2|DF~F2 Bcdf|ecBc AE~E2|CEAB cedc|
(3Bcd cd BF~F2|DF~F2 Bcdf|ecBA fcec|dcBA FB~B2:|


Tune 174	Setting 12816

